front_end/Images/flex-nowrap-icon.svg

<svg width="13" height="13" viewBox="0 0 13 13" fill="none" xmlns="http://www.w3.org/2000/svg">
<path fill-rule="evenodd" clip-rule="evenodd" d="M3 5H2L2 8H3V5ZM2 4C1.44772 4 1 4.44772 1 5V8C1 8.55228 1.44772 9 2 9H3C3.55228 9 4 8.55228 4 8V5C4 4.44772 3.55228 4 3 4H2Z" fill="black"/>
<path fill-rule="evenodd" clip-rule="evenodd" d="M11 5H10L10 8H11V5ZM10 4C9.44772 4 9 4.44772 9 5V8C9 8.55228 9.44772 9 10 9H11C11.5523 9 12 8.55228 12 8V5C12 4.44772 11.5523 4 11 4H10Z" fill="black"/>
<path d="M5 5C5 4.44772 5.44772 4 6 4H7C7.55228 4 8 4.44772 8 5V8C8 8.55228 7.55228 9 7 9H6C5.44772 9 5 8.55228 5 8V5Z" fill="black"/>
</svg>

<svg width="13" height="13" fill="none" xmlns="http://www.w3.org/2000/svg"><path fill-rule="evenodd" clip-rule="evenodd" d="M3 5H2v3h1V5zM2 4a1 1 0 0 0-1 1v3a1 1 0 0 0 1 1h1a1 1 0 0 0 1-1V5a1 1 0 0 0-1-1H2zM11 5h-1v3h1V5zm-1-1a1 1 0 0 0-1 1v3a1 1 0 0 0 1 1h1a1 1 0 0 0 1-1V5a1 1 0 0 0-1-1h-1z" fill="#000"/><path d="M5 5a1 1 0 0 1 1-1h1a1 1 0 0 1 1 1v3a1 1 0 0 1-1 1H6a1 1 0 0 1-1-1V5z" fill="#000"/></svg>
